assets/icons/24px/stroke/arrow-thick-left-24px.svg

<svg width="24" height="24" viewBox="0 0 24 24" fill="none" xmlns="http://www.w3.org/2000/svg">
<path fill-rule="evenodd" clip-rule="evenodd" d="M4.12345 12.6182C4.40652 12.9893 4.84888 13.4346 5.53554 14.1213L6.94975 15.5355C7.87454 16.4603 8.15247 16.7132 8.47728 16.8477C8.80209 16.9822 9.17744 16.9999 10.4853 16.9999L19.7268 16.9999L18.1984 15.3327C17.6462 14.7303 17.168 14.2087 16.8364 13.7373C16.4799 13.2305 16.2131 12.6746 16.2131 11.9999C16.2131 11.3253 16.4799 10.7694 16.8364 10.2626C17.168 9.79121 17.6462 9.26955 18.1984 8.66722L19.7268 6.99995L10.4853 6.99995C9.17744 6.99995 8.80209 7.01765 8.47728 7.15219C8.15247 7.28673 7.87454 7.53963 6.94975 8.46441L5.53554 9.87863C4.84888 10.5653 4.40652 11.0106 4.12345 11.3817C3.85799 11.7296 3.82843 11.8923 3.82843 11.9999C3.82843 12.1076 3.85799 12.2703 4.12345 12.6182ZM2.53341 13.8314C2.13221 13.3056 1.82843 12.7207 1.82843 11.9999C1.82843 11.2792 2.13221 10.6943 2.53341 10.1685C2.90777 9.67784 3.4479 9.13777 4.07478 8.51096L5.53554 7.0502C5.5761 7.00963 5.61612 6.96956 5.65563 6.92998C6.40446 6.17997 6.97308 5.61047 7.71191 5.30443C8.45074 4.9984 9.25552 4.99903 10.3154 4.99986C10.3713 4.9999 10.4279 4.99995 10.4853 4.99995L19.7268 4.99995C19.7476 4.99995 19.7685 4.99994 19.7893 4.99994C20.2221 4.99983 20.6499 4.99972 20.9824 5.04742C21.3034 5.09347 21.9466 5.23721 22.2364 5.89595C22.5262 6.5547 22.1975 7.12597 22.0145 7.39375C21.825 7.67108 21.5358 7.98639 21.2433 8.3053C21.2293 8.32066 21.2152 8.33603 21.2011 8.3514L19.7148 9.97277C19.1084 10.6343 18.7203 11.0606 18.4722 11.4133C18.2405 11.7427 18.2131 11.8966 18.2131 11.9999C18.2131 12.1033 18.2405 12.2572 18.4722 12.5866C18.7203 12.9393 19.1084 13.3656 19.7148 14.0271L21.2011 15.6485C21.2152 15.6639 21.2292 15.6792 21.2433 15.6946C21.5358 16.0135 21.825 16.3288 22.0145 16.6062C22.1975 16.8739 22.5262 17.4452 22.2364 18.1039C21.9466 18.7627 21.3034 18.9064 20.9824 18.9525C20.6499 19.0002 20.2221 19.0001 19.7893 19C19.7685 19 19.7476 18.9999 19.7268 18.9999L10.4853 18.9999C10.4279 18.9999 10.3713 19 10.3154 19C9.25551 19.0009 8.45074 19.0015 7.71191 18.6955C6.97308 18.3894 6.40447 17.8199 5.65563 17.0699C5.61612 17.0303 5.57611 16.9903 5.53554 16.9497L4.12133 15.5355C4.10576 15.5199 4.09024 15.5044 4.07478 15.4889C3.4479 14.8621 2.90777 14.3221 2.53341 13.8314Z" fill="white"/>
</svg>

<svg width="24" height="24" fill="none" xmlns="http://www.w3.org/2000/svg"><path fill-rule="evenodd" clip-rule="evenodd" d="M4.123 12.618c.284.371.726.817 1.413 1.503l1.414 1.415c.925.924 1.202 1.177 1.527 1.312.325.134.7.152 2.008.152h9.242l-1.529-1.667c-.552-.603-1.03-1.124-1.362-1.596-.356-.507-.623-1.062-.623-1.737s.267-1.23.623-1.737c.332-.472.81-.993 1.362-1.596L19.727 7h-9.242c-1.308 0-1.683.018-2.008.152-.325.135-.602.388-1.527 1.312L5.536 9.88c-.687.686-1.13 1.132-1.413 1.503-.265.348-.295.51-.295.618 0 .108.03.27.295.618zm-1.59 1.213c-.4-.525-.705-1.11-.705-1.831 0-.72.304-1.306.705-1.832.375-.49.915-1.03 1.542-1.657l1.46-1.46.12-.121c.75-.75 1.318-1.32 2.057-1.626C8.45 4.998 9.256 5 10.315 5h9.474c.433 0 .86 0 1.193.047.321.046.965.19 1.254.849.29.659-.038 1.23-.221 1.498-.19.277-.48.592-.772.911l-.042.046-1.486 1.622c-.607.661-.995 1.088-1.243 1.44-.232.33-.259.484-.259.587 0 .103.027.257.26.587.247.352.635.779 1.242 1.44L21.2 15.65l.042.046c.293.319.582.634.772.911.183.268.511.84.221 1.498-.29.659-.933.802-1.254.849-.332.047-.76.047-1.193.047h-9.474c-1.06 0-1.864.002-2.603-.305-.739-.306-1.308-.875-2.056-1.625l-.12-.12-1.415-1.414-.046-.047c-.627-.627-1.167-1.167-1.542-1.658z" fill="#fff"/></svg>
